frontend/public/images/quotes/finney.svg

<svg xmlns="http://www.w3.org/2000/svg" width="667" height="800" fill="none"><path fill="gray" fill-opacity=".08" d="M363.958 435.396c-4.748.846-5.768 2.87-6.665 6.687-1.083 4.584-4.786 8.579-7.516 12.713-2.095 3.181-4.446 6.19-6.688 9.27-.603.83-1.083 1.792-1.833 2.451-8.621 7.656-13.887 17.663-19.168 27.631-4.043 7.625-7.685 15.444-6.031 24.504.743 4.026 1.748 8.006 2.529 12.031.788 4.073 2.033 8.169 2.033 12.249 0 6.415 1.222 12.357 3.325 18.407 1.276 3.677.897 8.029.827 12.07-.154 8.215-.626 16.43-.881 24.644-.023.667.433 1.621.967 2.002 3.873 2.753 3.371 6.779 3.564 10.79.572 11.922.51 23.984 2.474 35.682 1.137 6.795 1.709 13.621 2.776 20.401 1.237 7.873-2.435 14.769-9.704 18.089-3.263 1.497-6.711 2.591-9.982 4.081-1.755.798-3.193 2.342-4.979 3.017-2.057.776-4.547 1.776-6.48 1.264-5.76-1.528-10.593.031-15.897 2.234-5.567 2.312-11.776 3.755-17.792 4.127-8.412.528-16.987.256-25.33-.853-2.521-.334-5.15-4.282-6.58-7.152-1.555-3.118.943-5.74 3.549-7.292 9.008-5.344 18.317-10.192 27.139-15.824 4.531-2.893 8.274-7.036 12.349-10.635.371-.326.533-1.086.912-1.194 5.459-1.529 4.539-5.322 4.005-9.619-.904-7.269-.719-14.669-1.623-21.929-.789-6.315-2.513-12.505-3.712-18.765-.843-4.39-1.353-8.858-2.296-13.225-1.469-6.827-3.279-13.583-4.717-20.417-.51-2.428-.448-4.995-.526-7.509-.294-9.58-.641-19.152-.773-28.732-.124-9.029-.982-18.205.309-27.041 1.021-6.973-.038-13.815.851-20.657.781-6.066 1.856-12.108 2.35-18.19.256-3.149-.479-6.384-.734-9.58-.139-1.738-.518-3.522-.263-5.205 1.925-12.644 3.905-25.28 6.008-37.893 2.057-12.318 8.961-22.131 16.284-31.788 2.18-2.878 5.405-5.865 3.255-10.317 4.075-5.996-1.098-10.767-2.204-16.049-.618-2.948.031-4.988 2.498-6.633 1.709-1.14 3.255-2.513 4.894-3.762 4.585-3.506 4.06-8.618-1.16-11.193-1.152-.567-2.381-1.055-3.402-1.808-2.342-1.714-2.049-4.095.464-5.499 1.941-1.086 5.127-2.087 5.405-3.569.665-3.545.479-7.493-.371-11.022-.851-3.522-1.763-6.989-4.206-10.325-2.111-2.886-1.067-8.098-1.408-12.217-7.415-1.598-11.397 5.476-17.428 7.958-8.784 3.615-16.987 8.673-25.462 13.055-.997.512-2.405.396-3.224 1.063-1.964 1.621-5.057 3.374-5.273 5.353-.828 7.338-5.637 11.907-10.13 16.724-2.861 3.064-3.317 4.313-.247 6.865 2.513 2.094 1.948 4.46.843 6.485-1.005 1.838-2.83 4.165-4.601 4.468-6.108 1.031-11.428-1.792-15.379-6.066-5.768-6.253-6.248-13.459-2.482-21.324 1.407-2.948 1.013-6.765 1.368-9.627 1.547-1.288 3.627-2.18 4.106-3.607.967-2.886-.572-5.135-3.325-6.578-1.221-.644-2.543-1.544-3.208-2.692-.689-1.186-.944-2.846-.774-4.219.07-.543 1.779-1.218 2.768-1.249 4.106-.148 8.305-.598 12.318.023 8.389 1.303 14.312-2.909 19.74-8.168 10.253-9.921 19.794-20.487 28.114-32.145 2.745-3.848 6.294-7.168 8.73-11.186 2.706-4.468 3.858-9.324.278-14.32-1.438-2.009-1.655-4.863-2.714-7.198-3.34-7.354-5.034-15.072-4.322-23.093.75-8.439 2.111-16.817 3.201-25.226.448-3.436.734-6.903 1.361-10.301 1.044-5.686 2.219-6.609 7.848-6.873 6.07-.279 12.023-5.872 11.985-12.116-.016-1.994-2.328-3.979-3.627-5.95-1.26-1.916-2.42-3.917-3.874-5.678-2.76-3.343-5.265-7.136-8.667-9.665-5.722-4.251-6.642-10.736-8.931-16.569-1.082-2.754-.758-6.105-4.887-6.601-.765-.094-1.345-1.459-2.087-2.157-1.871-1.768-3.789-3.483-5.219-4.786-1.918-4.204-4.091-8.005-5.328-12.093-.649-2.164.224-4.848.642-7.26.317-1.847 1.616-3.693 1.423-5.423-.913-8.13 3.92-12.939 9.394-17.484.773-.644 2.289-1.373 2.219-1.885-.58-4.073 2.745-5.275 4.81-7.594 1.971-2.227 3.696-4.174 6.843-4.275.587-.015 1.244-.372 1.716-.752 3.047-2.459 5.993-5.057 9.124-7.392.812-.605 2.196-.404 3.302-.667 1.593-.38 3.363-.52 4.709-1.335 3.054-1.846 5.891-1.388 9.185-.582 6.789 1.66 13.702 2.956 20.637 3.786 2.846.341 3.983.923 3.689 3.8-.294 2.824.379 5.105 2.992 6.936 2.227 1.567 3.062 3.777-.046 5.84-3.31 2.196-1.469 4.399.433 6.323 2.304 2.335 4.747 4.53 7.082 6.74-3.835 4.678-1.763 10.891 3.364 12.218.85.225 1.848 1 2.227 1.792 2.08 4.36 4.19 8.742 3.046 13.862-.789 3.521-.827 7.345-2.273 10.549-2.181 4.817-5.111 9.34-8.111 13.715-1.539 2.249-1.469 3.917.564 5.22 2.56 1.645 5.413 2.816 8.08 4.29a110.386 110.386 0 0 1 6.325 3.793c5.575 3.576 11.165 7.129 16.655 10.844 3.673 2.49 7.183 5.228 10.74 7.881.495.373 1.23.931 1.222 1.404-.031 5.314 3.881 5.624 7.655 6.827 2.49.799 5.281 2.715 6.533 4.933 2.274 4.01 6.735 7.199 5.653 12.822-.186.955.711 2.157 1.198 3.204 2.49 5.267 4.98 10.534 7.531 15.77 1.121 2.296 2.165 4.678 3.665 6.718 1.856 2.521 2.614 5.174 3.031 8.253.41 3.033 2.026 5.888 2.853 8.89 4.725 17.12 11.181 33.82 13.145 51.623.572 5.158.812 10.309-4.121 14.591-4.686 4.057-8.861 9.052-12.101 14.343-2.706 4.421-5.296 8.532-9.132 12.132-1.09 1.023.743 5.546 1.678 8.307 1.369 4.065 3.48 7.889 4.663 12 2.381 8.277 4.716 16.593 6.386 25.032 1.995 10.061 3.248 20.262 4.864 30.4.394 2.506 1.415 5.003 1.307 7.47-.194 4.344-1.315 8.649-1.547 12.993-.301 5.748-1.268 11.256-2.605 16.887-1.4 5.888-.704 12.318-.619 18.516.139 9.689 8.83 14.715 17.451 10.364 4.532-2.289 9.209-4.267 13.81-6.415.688-.318 1.531-.644 1.918-1.226 4.933-7.478 11.691-12.923 19.137-17.655.734-.465 1.276-1.458 1.608-2.319 2.861-7.455 5.969-14.366 13.152-19.253 3.866-2.622 7.122-4.561 11.838-4.903 4.802-.349 7.763 2.118 10.763 4.926 2.15 2.009 4.137 4.204 6.055 6.438 1.407 1.637 2.915 3.32 3.812 5.244 5.126 11.038 10.067 22.162 15.124 33.231.642 1.397 1.446 2.777 2.42 3.949 2.822 3.374 2.428 7.493 2.544 11.371.17 5.648-.016 11.326-.41 16.965-.263 3.809-.634 7.765-1.894 11.318-1.423 4.01-3.882 7.617-8.745 8.377-5.39.838-9.225-1.66-11.954-5.934-3.998-6.252-7.624-12.737-11.637-18.974-1.052-1.636-2.714-3.374-4.469-3.979-5.189-1.784-10.547-3.087-15.867-4.46-4.113-1.063-7.523.256-9.897 3.886-6.193 9.44-12.147 19.043-18.542 28.352-1.917 2.792-4.933 4.833-7.477 7.183-5.072 4.685-10.028 9.526-15.309 13.978-4.64 3.91-9.611 7.431-14.506 11.031-4.809 3.537-10.508 6.252-14.335 10.634-4.245 4.849-9.271 5.461-14.722 5.989-5.158.496-6.704-.784-8.993-5.376-1.005-2.017-2.907-3.777-4.77-5.135-5.057-3.684-9.41-8.199-10.88-14.187-2.567-10.472-4.183-21.169-6.185-31.781-.139-.76-.186-1.536-.271-2.296-1.268-11.465-2.613-22.93-3.765-34.41-.48-4.732-.426-9.51-.859-14.242-.232-2.583-.958-5.12-1.461-7.641l-.031-.062Z"/></svg>

<svg width="667" height="800" viewBox="0 0 667 800" fill="none" xmlns="http://www.w3.org/2000/svg">
<path d="M363.958 435.396C359.21 436.242 358.19 438.266 357.293 442.083C356.21 446.667 352.507 450.662 349.777 454.796C347.682 457.977 345.331 460.986 343.089 464.066C342.486 464.896 342.006 465.858 341.256 466.517C332.635 474.173 327.369 484.18 322.088 494.148C318.045 501.773 314.403 509.592 316.057 518.652C316.8 522.678 317.805 526.658 318.586 530.683C319.374 534.756 320.619 538.852 320.619 542.932C320.619 549.347 321.841 555.289 323.944 561.339C325.22 565.016 324.841 569.368 324.771 573.409C324.617 581.624 324.145 589.839 323.89 598.053C323.867 598.72 324.323 599.674 324.857 600.055C328.73 602.808 328.228 606.834 328.421 610.845C328.993 622.767 328.931 634.829 330.895 646.527C332.032 653.322 332.604 660.148 333.671 666.928C334.908 674.801 331.236 681.697 323.967 685.017C320.704 686.514 317.256 687.608 313.985 689.098C312.23 689.896 310.792 691.44 309.006 692.115C306.949 692.891 304.459 693.891 302.526 693.379C296.766 691.851 291.933 693.41 286.629 695.613C281.062 697.925 274.853 699.368 268.837 699.74C260.425 700.268 251.85 699.996 243.507 698.887C240.986 698.553 238.357 694.605 236.927 691.735C235.372 688.617 237.87 685.995 240.476 684.443C249.484 679.099 258.793 674.251 267.615 668.619C272.146 665.726 275.889 661.583 279.964 657.984C280.335 657.658 280.497 656.898 280.876 656.79C286.335 655.261 285.415 651.468 284.881 647.171C283.977 639.902 284.162 632.502 283.258 625.242C282.469 618.927 280.745 612.737 279.546 606.477C278.703 602.087 278.193 597.619 277.25 593.252C275.781 586.425 273.971 579.669 272.533 572.835C272.023 570.407 272.085 567.84 272.007 565.326C271.713 555.746 271.366 546.174 271.234 536.594C271.11 527.565 270.252 518.389 271.543 509.553C272.564 502.58 271.505 495.738 272.394 488.896C273.175 482.83 274.25 476.788 274.744 470.706C275 467.557 274.265 464.322 274.01 461.126C273.871 459.388 273.492 457.604 273.747 455.921C275.672 443.277 277.652 430.641 279.755 418.028C281.812 405.71 288.716 395.897 296.039 386.24C298.219 383.362 301.444 380.375 299.294 375.923C303.369 369.927 298.196 365.156 297.09 359.874C296.472 356.926 297.121 354.886 299.588 353.241C301.297 352.101 302.843 350.728 304.482 349.479C309.067 345.973 308.542 340.861 303.322 338.286C302.17 337.719 300.941 337.231 299.92 336.478C297.578 334.764 297.871 332.383 300.384 330.979C302.325 329.893 305.511 328.892 305.789 327.41C306.454 323.865 306.268 319.917 305.418 316.388C304.567 312.866 303.655 309.399 301.212 306.063C299.101 303.177 300.145 297.965 299.804 293.846C292.389 292.248 288.407 299.322 282.376 301.804C273.592 305.419 265.389 310.477 256.914 314.859C255.917 315.371 254.509 315.255 253.69 315.922C251.726 317.543 248.633 319.296 248.417 321.275C247.589 328.613 242.78 333.182 238.287 337.999C235.426 341.063 234.97 342.312 238.04 344.864C240.553 346.958 239.988 349.324 238.883 351.349C237.878 353.187 236.053 355.514 234.282 355.817C228.174 356.848 222.854 354.025 218.903 349.751C213.135 343.498 212.655 336.292 216.421 328.427C217.828 325.479 217.434 321.662 217.789 318.8C219.336 317.512 221.416 316.62 221.895 315.193C222.862 312.307 221.323 310.058 218.57 308.615C217.349 307.971 216.027 307.071 215.362 305.923C214.673 304.737 214.418 303.077 214.588 301.704C214.658 301.161 216.367 300.486 217.356 300.455C221.462 300.307 225.661 299.857 229.674 300.478C238.063 301.781 243.986 297.569 249.414 292.31C259.667 282.389 269.208 271.823 277.528 260.165C280.273 256.317 283.822 252.997 286.258 248.979C288.964 244.511 290.116 239.655 286.536 234.659C285.098 232.65 284.881 229.796 283.822 227.461C280.482 220.107 278.788 212.389 279.5 204.368C280.25 195.929 281.611 187.551 282.701 179.142C283.149 175.706 283.435 172.239 284.062 168.841C285.106 163.155 286.281 162.232 291.91 161.968C297.98 161.689 303.933 156.096 303.895 149.852C303.879 147.858 301.567 145.873 300.268 143.902C299.008 141.986 297.848 139.985 296.394 138.224C293.634 134.881 291.129 131.088 287.727 128.559C282.005 124.308 281.085 117.823 278.796 111.99C277.714 109.236 278.038 105.885 273.909 105.389C273.144 105.295 272.564 103.93 271.822 103.232C269.951 101.464 268.033 99.7492 266.603 98.446C264.685 94.2417 262.512 90.4408 261.275 86.3528C260.626 84.1886 261.499 81.5046 261.917 79.0922C262.234 77.246 263.533 75.3999 263.34 73.67C262.427 65.5407 267.26 60.7313 272.734 56.1857C273.507 55.5419 275.023 54.8127 274.953 54.3007C274.373 50.2283 277.698 49.026 279.763 46.7066C281.734 44.4803 283.459 42.5333 286.606 42.4325C287.193 42.417 287.85 42.0601 288.322 41.68C291.369 39.2211 294.315 36.6225 297.446 34.2876C298.258 33.6825 299.642 33.8842 300.748 33.6205C302.341 33.2404 304.111 33.1008 305.457 32.2863C308.511 30.4401 311.348 30.8978 314.642 31.7045C321.431 33.3645 328.344 34.6599 335.279 35.4899C338.125 35.8312 339.262 36.413 338.968 39.2909C338.674 42.1144 339.347 44.395 341.96 46.2257C344.187 47.7926 345.022 50.0033 341.914 52.0667C338.604 54.2619 340.445 56.4649 342.347 58.3887C344.651 60.7236 347.094 62.9188 349.429 65.1296C345.594 69.807 347.666 76.0204 352.793 77.3469C353.643 77.5718 354.641 78.3475 355.02 79.1388C357.1 83.4982 359.21 87.8809 358.066 93.0006C357.277 96.5223 357.239 100.346 355.793 103.55C353.612 108.367 350.682 112.89 347.682 117.265C346.143 119.514 346.213 121.182 348.246 122.485C350.806 124.13 353.659 125.301 356.326 126.775C358.476 127.962 360.587 129.241 362.651 130.568C368.226 134.144 373.816 137.697 379.306 141.412C382.979 143.902 386.489 146.64 390.046 149.293C390.541 149.666 391.276 150.224 391.268 150.697C391.237 156.011 395.149 156.321 398.923 157.524C401.413 158.323 404.204 160.239 405.456 162.457C407.73 166.467 412.191 169.656 411.109 175.279C410.923 176.234 411.82 177.436 412.307 178.483C414.797 183.75 417.287 189.017 419.838 194.253C420.959 196.549 422.003 198.931 423.503 200.971C425.359 203.492 426.117 206.145 426.534 209.224C426.944 212.257 428.56 215.112 429.387 218.114C434.112 235.234 440.568 251.934 442.532 269.737C443.104 274.895 443.344 280.046 438.411 284.328C433.725 288.385 429.55 293.38 426.31 298.671C423.604 303.092 421.014 307.203 417.178 310.803C416.088 311.826 417.921 316.349 418.856 319.11C420.225 323.175 422.336 326.999 423.519 331.11C425.9 339.387 428.235 347.703 429.905 356.142C431.9 366.203 433.153 376.404 434.769 386.542C435.163 389.048 436.184 391.545 436.076 394.012C435.882 398.356 434.761 402.661 434.529 407.005C434.228 412.753 433.261 418.261 431.924 423.892C430.524 429.78 431.22 436.21 431.305 442.408C431.444 452.097 440.135 457.123 448.756 452.772C453.288 450.483 457.965 448.505 462.566 446.357C463.254 446.039 464.097 445.713 464.484 445.131C469.417 437.653 476.175 432.208 483.621 427.476C484.355 427.011 484.897 426.018 485.229 425.157C488.09 417.702 491.198 410.791 498.381 405.904C502.247 403.282 505.503 401.343 510.219 401.001C515.021 400.652 517.982 403.119 520.982 405.927C523.132 407.936 525.119 410.131 527.037 412.365C528.444 414.002 529.952 415.685 530.849 417.609C535.975 428.647 540.916 439.771 545.973 450.84C546.615 452.237 547.419 453.617 548.393 454.789C551.215 458.163 550.821 462.282 550.937 466.16C551.107 471.808 550.921 477.486 550.527 483.125C550.264 486.934 549.893 490.89 548.633 494.443C547.21 498.453 544.751 502.06 539.888 502.82C534.498 503.658 530.663 501.16 527.934 496.886C523.936 490.634 520.31 484.149 516.297 477.912C515.245 476.276 513.583 474.538 511.828 473.933C506.639 472.149 501.281 470.846 495.961 469.473C491.848 468.41 488.438 469.729 486.064 473.359C479.871 482.799 473.917 492.402 467.522 501.711C465.605 504.503 462.589 506.544 460.045 508.894C454.973 513.579 450.017 518.42 444.736 522.872C440.096 526.782 435.125 530.303 430.23 533.903C425.421 537.44 419.722 540.155 415.895 544.537C411.65 549.386 406.624 549.998 401.173 550.526C396.015 551.022 394.469 549.742 392.18 545.15C391.175 543.133 389.273 541.373 387.41 540.015C382.353 536.331 378 531.816 376.53 525.828C373.963 515.356 372.347 504.659 370.345 494.047C370.206 493.287 370.159 492.511 370.074 491.751C368.806 480.286 367.461 468.821 366.309 457.341C365.829 452.609 365.883 447.831 365.45 443.099C365.218 440.516 364.492 437.979 363.989 435.458L363.958 435.396Z" fill="#808080" fill-opacity="0.08"/>
</svg>
